assets/illustrations/multisize/40/font.svg

<svg id="3294cce9-706e-422f-82ac-ea405650b806" data-name="ICONS" xmlns="http://www.w3.org/2000/svg" xmlns:xlink="http://www.w3.org/1999/xlink" viewBox="0 0 40 40"><defs><linearGradient id="9f3f44da-8239-4c2f-b90e-13bb27bc1af5" x1="20.09541" y1="10.4003" x2="20.09541" y2="28.91875" gradientUnits="userSpaceOnUse"><stop offset="0" stop-color="#f7903b"/><stop offset="1" stop-color="#ff5c0d"/></linearGradient><linearGradient id="e54b500e-3b93-40db-bea0-9c46707aca9e" x1="3.38265" y1="4.19622" x2="32.67812" y2="39.10919" gradientUnits="userSpaceOnUse"><stop offset="0" stop-color="#fff" stop-opacity="0"/><stop offset="0.86247" stop-color="#5e5e5e" stop-opacity="0.06315"/><stop offset="1" stop-opacity="0.1"/></linearGradient><linearGradient id="46e30a4b-e811-4ccc-bd02-81fe273bbb6e" x1="29" y1="13.90625" x2="29" y2="11.08751" gradientUnits="userSpaceOnUse"><stop offset="0" stop-color="#828282" stop-opacity="0"/><stop offset="0.86247" stop-color="#303030" stop-opacity="0.06315"/><stop offset="1" stop-opacity="0.1"/></linearGradient><linearGradient id="93dd3ffd-5c60-4d47-a37b-e0e350db79a1" x1="23.79167" y1="9.70833" x2="28.72991" y2="4.77009" gradientUnits="userSpaceOnUse"><stop offset="0" stop-color="#fff" stop-opacity="0"/><stop offset="0.44604" stop-color="#fff" stop-opacity="0.00799"/><stop offset="0.63551" stop-color="#fff" stop-opacity="0.03616"/><stop offset="0.77636" stop-color="#fff" stop-opacity="0.08493"/><stop offset="0.8924" stop-color="#fff" stop-opacity="0.15385"/><stop offset="0.99328" stop-color="#fff" stop-opacity="0.24291"/><stop offset="1" stop-color="#fff" stop-opacity="0.25"/></linearGradient></defs><title>FileTypeIcons_Master_All_NEW</title><polygon points="7 3 26 3 33 10 33 37 7 37 7 3" fill="#fff"/><path d="M26,2H6V38H34V10Zm0,1.5L32.5,10H26ZM33,37H7V3H25v8h8Z" fill="#949494"/><path d="M22.77913,22.8572H15.76954l-1.22833,2.8572a4.52188,4.52188,0,0,0-.45395,1.57547.9148.9148,0,0,0,.39383.7277,3.439,3.439,0,0,0,1.70227.40718v.494h-5.701v-.494A3.07347,3.07347,0,0,0,11.951,27.904a8.17986,8.17986,0,0,0,1.50864-2.60353L19.82838,10.4003h.46723l6.30188,15.06043a6.86383,6.86383,0,0,0,1.382,2.35649,2.81521,2.81521,0,0,0,1.729.60753v.494H22.5655v-.494a2.67617,2.67617,0,0,0,1.462-.36049.92959.92959,0,0,0,.3804-.74768,5.53828,5.53828,0,0,0-.53406-1.85585Zm-.37384-.988-3.071-7.31659-3.15094,7.31659Z" fill="url(#9f3f44da-8239-4c2f-b90e-13bb27bc1af5)"/><path d="M34,10,26,2H6V38H34Z" fill="url(#e54b500e-3b93-40db-bea0-9c46707aca9e)"/><rect x="25" y="11" width="8" height="3" fill="url(#46e30a4b-e811-4ccc-bd02-81fe273bbb6e)"/><polygon points="26 2 6 2 6 3 25 3 25 11 33 11 33 25 34 25 34 10 26 2" fill="url(#93dd3ffd-5c60-4d47-a37b-e0e350db79a1)"/></svg>

<?xml version="1.0" encoding="utf-8"?>
<!-- Generator: Adobe Illustrator 21.1.0, SVG Export Plug-In . SVG Version: 6.00 Build 0)  -->
<svg version="1.1" xmlns="http://www.w3.org/2000/svg" xmlns:xlink="http://www.w3.org/1999/xlink" x="0px" y="0px"
	 viewBox="0 0 40 40" enable-background="new 0 0 40 40" xml:space="preserve">
<g id="TEMPLATE" display="none">
	<g display="inline">
		<path fill="#D0D0D0" d="M40,0v40H0V0H40 M41-1h-1H0h-1v1v40v1h1h40h1v-1V0V-1L41-1z"/>
	</g>
	<g display="inline" opacity="0.1">
		<path fill="#FF3A6D" d="M38,2v36H2V2H38 M40,0H0v40h40V0L40,0z"/>
	</g>
</g>
<g id="ICONS">
	<g>
		<polygon fill="#FFFFFF" points="7,3 26,3 33,10 33,37 7,37 		"/>
		<path fill="#949494" d="M26,2H6v36h28V10L26,2z M26,3.5l6.5,6.5H26V3.5z M33,37H7V3h18v8h8V37z"/>
	</g>
	<g>
		<linearGradient id="SVGID_1_" gradientUnits="userSpaceOnUse" x1="20.0954" y1="10.4003" x2="20.0954" y2="28.9188">
			<stop  offset="0" style="stop-color:#F7903B"/>
			<stop  offset="1" style="stop-color:#FF5C0D"/>
		</linearGradient>
		<path fill="url(#SVGID_1_)" d="M22.7791,22.8572h-7.0096l-1.2283,2.8572c-0.3027,0.7033-0.4539,1.2283-0.4539,1.5755
			c0,0.276,0.1312,0.5186,0.3938,0.7277c0.2625,0.2092,0.8299,0.345,1.7023,0.4072v0.494h-5.701v-0.494
			c0.7564-0.1335,1.246-0.3071,1.4687-0.5207c0.4539-0.4272,0.9567-1.2951,1.5086-2.6035l6.3687-14.9002h0.4672l6.3019,15.0604
			c0.5075,1.2106,0.968,1.9961,1.382,2.3565c0.4138,0.3606,0.99,0.5631,1.729,0.6075v0.494h-7.1429v-0.494
			c0.7208-0.0355,1.2082-0.1556,1.4619-0.3605c0.2536-0.2046,0.3804-0.4539,0.3804-0.7477c0-0.3915-0.1781-1.0101-0.5341-1.8559
			L22.7791,22.8572z M22.4053,21.8692l-3.071-7.3166l-3.1509,7.3166H22.4053z"/>
	</g>
	<linearGradient id="SVGID_2_" gradientUnits="userSpaceOnUse" x1="3.3827" y1="4.1962" x2="32.6781" y2="39.1092">
		<stop  offset="0" style="stop-color:#FFFFFF;stop-opacity:0"/>
		<stop  offset="0.2264" style="stop-color:#FCFCFC;stop-opacity:0.0226"/>
		<stop  offset="0.3626" style="stop-color:#F4F4F4;stop-opacity:0.0363"/>
		<stop  offset="0.475" style="stop-color:#E6E6E6;stop-opacity:0.0475"/>
		<stop  offset="0.5744" style="stop-color:#D1D1D1;stop-opacity:0.0574"/>
		<stop  offset="0.6652" style="stop-color:#B7B7B7;stop-opacity:0.0665"/>
		<stop  offset="0.7498" style="stop-color:#979797;stop-opacity:0.075"/>
		<stop  offset="0.8297" style="stop-color:#707070;stop-opacity:0.083"/>
		<stop  offset="0.9057" style="stop-color:#444444;stop-opacity:0.0906"/>
		<stop  offset="0.9761" style="stop-color:#121212;stop-opacity:0.0976"/>
		<stop  offset="1" style="stop-color:#000000;stop-opacity:0.1"/>
	</linearGradient>
	<path fill="url(#SVGID_2_)" d="M34,10l-8-8H6v36h28V10z"/>
	<linearGradient id="SVGID_3_" gradientUnits="userSpaceOnUse" x1="29" y1="13.9063" x2="29" y2="11.0875">
		<stop  offset="0" style="stop-color:#828282;stop-opacity:0"/>
		<stop  offset="0.2812" style="stop-color:#7F7F7F;stop-opacity:0.0281"/>
		<stop  offset="0.4503" style="stop-color:#777777;stop-opacity:0.045"/>
		<stop  offset="0.5899" style="stop-color:#696969;stop-opacity:0.059"/>
		<stop  offset="0.7133" style="stop-color:#545454;stop-opacity:0.0713"/>
		<stop  offset="0.8259" style="stop-color:#3A3A3A;stop-opacity:0.0826"/>
		<stop  offset="0.9294" style="stop-color:#1A1A1A;stop-opacity:0.0929"/>
		<stop  offset="1" style="stop-color:#000000;stop-opacity:0.1"/>
	</linearGradient>
	<rect x="25" y="11" fill="url(#SVGID_3_)" width="8" height="3"/>
	<linearGradient id="SVGID_4_" gradientUnits="userSpaceOnUse" x1="23.7917" y1="9.7083" x2="28.7299" y2="4.7701">
		<stop  offset="0" style="stop-color:#FFFFFF;stop-opacity:0"/>
		<stop  offset="0.8537" style="stop-color:#FFFFFF;stop-opacity:0.2134"/>
		<stop  offset="1" style="stop-color:#FFFFFF;stop-opacity:0.25"/>
	</linearGradient>
	<polygon fill="url(#SVGID_4_)" points="26,2 6,2 6,3 25,3 25,11 32.9999,10.9999 33,25 34,25 34,10 	"/>
</g>
</svg>
